assets/symbols/mulberry/cot.svg

<svg height="850.394" viewBox="0 0 850.394 850.394" width="850.394" xmlns="http://www.w3.org/2000/svg"><path d="m688.7 400.03v-36.43l41.3 10.4 1.8 3.44z" fill="#fff5b4"/><path d="m600.03 248.74v92.54l-87.11-21.93v-37.94l-1.47-4.19 87.75-30.84z" fill="#ffeec8"/><path d="m688.7 363.6v36.43l-88.67 46.47v-105.22zm-88.67-22.32v105.22l-87.11 45.65v-172.8z" fill="#fff5b4"/><path d="m688.7 214.92v148.68l-88.67-22.32v-92.54l-.83-2.36z" fill="#ffeec8"/><path d="m512.92 319.35v172.8l-85.27 44.69v-227.44l-.85-2.43 16.86-5.93.34.96z" fill="#fff5b4"/><path d="m743.14 196.33v175.17l-11.34 5.94-1.8-3.44-41.3-10.4v-148.68l52.89-18.59z" fill="#ffeec8"/><path d="m427.65 309.4v227.44l-55.65 29.16h-2.19v-239l25.63-9.01 31.36-11.02z" fill="#fff5b4"/><path d="m427.65 536.84v91.32l-57.84 31.73v-93.89h2.19zm85.27-44.69v89.24l-85.27 46.77v-91.32zm87.11-45.65v87.11l-87.11 47.78v-89.24zm88.67-46.47v84.94l-88.67 48.64v-87.11zm54.44-28.53v86.17h-4.66l-49.78 27.3v-84.94l43.1-22.59z" fill="#fff5b4"/><path d="m369.81 566v93.89l-264.45-94.89v-300.67l.1-.02c3.2-.68 80.66-16.73 147.68.02 23.63 5.9 44.85 15.52 62.51 25.58 33.48 19.08 54.16 39.75 54.16 39.75zm-40.74 47.16 2.79-272.86c-17.17-17.17-48.16-39.99-78.44-47.56-38.67-9.67-80.66-13.08-112.49-.23v252.35z" fill="#ffeec8"/><path d="m331.86 340.3-2.79 272.86-188.14-68.3v-252.35c31.83-12.85 73.82-9.44 112.49.23 30.28 7.57 61.27 30.39 78.44 47.56z" fill="#ef947d"/><path d="m502.03 167.16v-16.84h1.18s67.2-25.56 129.42-19.69 105.38 37.64 105.38 37.64h5.13v28.06h-1.55l-52.89 18.59-89.5 31.46-87.75 30.84-9.25 3.25-.17-.49z" fill="#ffeec8"/><g fill="none"><g stroke="#231f20"><path d="m105.36 638.11v-427.78m264.45 70v452.67m373.33-605.11v427.78m-4.66-98-49.78 27.3-88.67 48.64-87.11 47.78-85.27 46.77-57.84 31.73-264.45-94.89m.1-300.69c3.2-.68 80.66-16.73 147.68.02 23.63 5.9 44.85 15.52 62.51 25.58 33.48 19.08 54.16 39.75 54.16 39.75" stroke-width="21"/><path d="m331.86 340.3c-17.17-17.17-48.16-39.99-78.44-47.56-38.67-9.67-80.66-13.08-112.49-.23v252.35l188.14 68.3z" stroke-width="14"/><path d="m503.21 150.32s67.2-25.56 129.42-19.69 105.38 37.64 105.38 37.64m-632.65 96.06.1-.02 210.54-51.58 78.04-19.11 67.4-16.52 40.59-9.94 1.56-.38m-133.78 160.22 25.63-9.01 31.36-11.02 16.86-5.93 17.92-6.29 40.62-14.28 9.25-3.25 87.75-30.84 89.5-31.46 52.89-18.59m-239.56-79.33v162.98m-74.38 29.42v319.03m85.27-347.02v306.57m87.11-339.24v287.91m88.67-322.13v275.46m-371.78-273.48v71.21m77.78-91.38v119.57m66.88-138.23v119.56" stroke-width="21"/><path d="m372 566 55.65-29.16 85.27-44.69 87.11-45.65 88.67-46.47 43.1-22.59 11.34-5.94 2.86-1.5m-16 4-41.3-10.4-88.67-22.32-87.11-21.93-68.92-17.35" stroke-width="7"/></g><path d="m0 0h850.394v850.394h-850.394z"/></g></svg>

<svg xmlns="http://www.w3.org/2000/svg" width="850.394" height="850.394" viewBox="0 0 850.394 850.394" overflow="visible"><path fill="#fff5b4" d="M688.7 400.03V363.6L730 374l1.8 3.44z"/><path fill="#ffeec8" d="M600.03 248.74v92.54l-87.11-21.93v-37.94l-1.47-4.19 87.75-30.84z"/><path fill="#fff5b4" d="M688.7 363.6v36.43l-88.67 46.47V341.28zM600.03 341.28V446.5l-87.11 45.65v-172.8z"/><path fill="#ffeec8" d="M688.7 214.92V363.6l-88.67-22.32v-92.54l-.83-2.36z"/><path fill="#fff5b4" d="M512.92 319.35v172.8l-85.27 44.69V309.4l-.85-2.43 16.86-5.93.34.96z"/><path fill="#ffeec8" d="M743.14 196.33V371.5l-11.34 5.94L730 374l-41.3-10.4V214.92l52.89-18.59z"/><path fill="#fff5b4" d="M427.65 309.4v227.44L372 566h-2.19V327l25.63-9.01 31.36-11.02z"/><path fill="#fff5b4" d="M427.65 536.84v91.32l-57.84 31.73V566H372zM512.92 492.15v89.24l-85.27 46.77v-91.32zM600.03 446.5v87.11l-87.11 47.78v-89.24zM688.7 400.03v84.94l-88.67 48.64V446.5zM743.14 371.5v86.17h-4.66l-49.78 27.3v-84.94l43.1-22.59z"/><path d="M369.81 566v93.89L105.36 565V264.33l.1-.02c3.2-.68 80.66-16.73 147.68.02 23.63 5.9 44.85 15.52 62.51 25.58 33.48 19.08 54.16 39.75 54.16 39.75V566zm-40.74 47.16l2.79-272.86c-17.17-17.17-48.16-39.99-78.44-47.56-38.67-9.67-80.66-13.08-112.49-.23v252.35l188.14 68.3z" fill="#ffeec8"/><path d="M331.86 340.3l-2.79 272.86-188.14-68.3V292.51c31.83-12.85 73.82-9.44 112.49.23 30.28 7.57 61.27 30.39 78.44 47.56z" fill="#ef947d"/><path d="M502.03 167.16v-16.84h1.18s67.2-25.56 129.42-19.69 105.38 37.64 105.38 37.64h5.13v28.06h-1.55l-52.89 18.59-89.5 31.46-87.75 30.84-9.25 3.25-.17-.49V167.16z" fill="#ffeec8"/><g fill="none" stroke="#231f20"><path stroke-width="21" d="M105.36 638.11V210.33M369.81 280.33V733M743.14 127.89v427.78M738.48 457.67l-49.78 27.3-88.67 48.64-87.11 47.78-85.27 46.77-57.84 31.73L105.36 565M105.46 264.31c3.2-.68 80.66-16.73 147.68.02 23.63 5.9 44.85 15.52 62.51 25.58 33.48 19.08 54.16 39.75 54.16 39.75"/><path d="M331.86 340.3c-17.17-17.17-48.16-39.99-78.44-47.56-38.67-9.67-80.66-13.08-112.49-.23v252.35l188.14 68.3 2.79-272.86z" stroke-width="14"/><path d="M503.21 150.32s67.2-25.56 129.42-19.69 105.38 37.64 105.38 37.64M105.36 264.33l.1-.02L316 212.73l78.04-19.11 67.4-16.52 40.59-9.94 1.56-.38M369.81 327l25.63-9.01 31.36-11.02 16.86-5.93 17.92-6.29 40.62-14.28 9.25-3.25 87.75-30.84 89.5-31.46 52.89-18.59M502.03 117v162.98M427.65 309.4v319.03M512.92 281.41v306.57M600.03 248.74v287.91M688.7 214.52V489.98M316.92 216.5v71.21M394.7 196.33V315.9M461.58 177.67v119.56" stroke-width="21"/><path stroke-width="7" d="M372 566l55.65-29.16 85.27-44.69 87.11-45.65 88.67-46.47 43.1-22.59 11.34-5.94L746 370M730 374l-41.3-10.4-88.67-22.32-87.11-21.93L444 302"/></g><path fill="none" d="M0 0h850.394v850.394H0z"/></svg>
